X: 4141
T: Black Mary
C: A very Old Galic Air
%R: air
B: Niel Gow & Sons "A Fourth Collection of Strathspey Reels, etc." v.4 p.14 #1
Z: 2022 John Chambers <jc:trillian.mit.edu>
M: C
L: 1/8
Q: "Slow"
K: C
% - - - - - - - - - -
% Voice 1 reformatted for 2 6-bar lines, for compactness and proofreading.
V: 1 staves=2
|:\
c4 c4 | ~c2BA G4 | f4 e2d2 | e2g2 a4 ||\
Tg3a (ag) fe | (fd)(ec) A2{B}c2 | G4 A2c2 | {e2}Td4 c2 :: Tc>d |\
e2 e4 dc | f4 f2Tc>d | e2 e4 dc | ~d4 d2Tc>d ||
e2 e4 dc | (Tdcd).e (dfe)d | {B}c3A G3A | (TcBc).d (cd)(ed) ||\
c4 c4 | ~c2BA G4 | f4 e2d2 | e2g2 a4 ||\
Tg3a (ag) fe | (fd)(ec) ~A3c | G4 A2c2 | {e2}Td4 c2 :|
% - - - - - - - - - -
% Voice 2 preserves the staff layout in the book.
V: 2 clef=bass middle=d
|:\
C2c2 d2e2 | f4 e2c2 | B2G2 c2f2 | e2c2 FGAB || c2c2 e2c2 | B2c2 F2f2 | e2c2 f2e2 | g2G2 c2 :: z2 |
z2c2 c'2c'2 | b2d'2 g2z2 | z2c2 c'2ba | g2G2 G2z2 || z2c2 c'2ba | g4 [g4b4] | a3f e3c | C2c2 C4 ||
cc'ba gfed | c2f2 e2c2 | B2G2 c2f2 | e2c2 FGAB || c2c2 e2c2 | B2c2 F2f2 | e2c2 f2e>f | g2G2 c2 :|


